X: 185
T: Systerpolska 1
O: Dalarna, Ore
S: efter [[!Timas Hans Hansson]]
R: Polska
Z: Håkan Lidén, 2008-09-27
M: 3/4
L: 1/8
K: Gm
D |: G>B d2 g>b | a^f/a/ g2 d>c | Bc/B/ AB/A/ G>A | BA/G/ G/^F/A/F/ D>D |
G>B d2 g>b | a^f/a/ g2 d>c | Bc/B/ AB/A/ GB/G/ |1 D/^F/A/F/ G3 D :|2 D/^F/A/F/ G4 ||
|: d>c B/A/B/c/ de | c/d/c/A/ F>A cd | B>A G/^F/G/B/ d>B | BA/G/ G/^F/A/F/ D4 |
d>c B/A/B/c/ de | c/d/c/A/ F>A cd | B>A G/^F/G/B/ d>B |1 A/B/A/^F/ G4 :|2 A/B/A/^F/ G3 |]

